X: 1
T: Mist on the Meadows, The
Z: Hiroyuki Yamada
R: jig
M: 6/8
L: 1/8
T: The Castlebar Races
D: Harry Bradley "As I Carelessly Did Stray..."
D: Hammy Hamilton "The Moneymusk"
Z: Contributed 20040503224729 by Hiroyuki Yamada slainte_mha@infoseek.jp
K: Gmaj
f|gdB BAB|GBA GBd|gdB BAB|GBd e2f|
gdB BAB|GBA GBd|gfe fdB|ABd e2:|
f|gfg bag|fef def|gfg bag|fed e2f|
gfg bag|fef def|gfe fdB|ABd e2:|
